X: 4591
T: Bould Thady Quill, The
R: jig
M: 6/8
K: Gmajor
B|:dec dBA|GAF GBd|g3 edB|BAG A2B|
dec dBA|GAF GBd|g3 edB|AGF G2d:|
|:def g3|agf edB|g3 edB|BAG A2d|
dec dBA|GAF GBd|g3 edB|1 AGF G2d:|2 AGF G2B||

